X:1
T:I Want My Life to Count for Jesus
T:I Want My Life to Count for Jesus
T:Melville Homer Cummings, Sr.
T:Melville Homer Cummings, Sr., 1919
T:Public Domain Courtesy of the Cyber Hymnal™
T:Public Domain Courtesy of the Cyber Hymnal™
C:Melville Homer Cummings, Sr.
Z:Public Domain
Z:Courtesy of the Cyber Hymnal™
%%score ( 1 2 ) ( 3 4 )
L:1/8
Q:1/4=88
M:3/4
K:F
V:1 treble 
V:2 treble 
V:3 bass 
V:4 bass 
V:1
"^Duet" CF G | A3 A cB | A3 F2 A | c3 B G^G | A3 C FG | A3 F Ac | c2 !fermata!BF FG | A3 C G>F | %8
w: 1.~I want my|life to count for|Je- sus, As|thro’ the world I|go; I long to|be so true and|faith- ful, That oth- ers|may His good- ness|
w: 2.~I want my|life to speak for|Je- sus, In|words of love and|cheer, That lone- ly|hearts by grief o’er-|tak- en May feel His|bless- èd pre- sence|
w: 3.~I want my|life to shine for|Je- sus— Lost|souls are in the|night; If I re-|flect His beams of|mer- cy, I’ll lead them|to the Gos- pel|
w: 4.~I want to|go and dwell with|Je- sus When|life on earth is|o’er; No bit- ter|tears, no dis- ap-|point- ments, I’ll be with|Him for- ev- er-|
 F3 ||"^Refrain" cd c | (z E E)G cB | z [FA]2 x6 | [EG]3 [=B,D] [CE][DF] | [EG]3 C [CF][CG] | %14
w: know.|I want my|* * life to count||for Him, In ser-|vice ev- ery day;|
w: near.|I want my|* * life to speak||for Him, In ser-|vice ev- ery day;|
w: light.|I want my|* * life to shine||for Him, In ser-|vice ev- ery day;|
w: more.|I want to|* * go and dwell||with Him In Hea-|ven by and by;|
 [FA]3 F [FA][_Ec] | [DB]3 [DF] [DF][_DG] | [CA]3 C [CG]>[CF] | [CF]3 |] %18
w: In all I do,|in all I say,|I want my life|to|
w: In all I do,|in all I say,|I want my life|to|
w: In all I do,|in all I say,|I want my life|to|
w: No flow- ers fade,|none ev- er die,|I want to go|and|
V:2
 x3 | x6 | x6 | x6 | x6 | x6 | x6 | x6 | x3 || x3 | B3 x3 | (A6 F F2) | x6 | x3 C x2 | x3 F x2 | %15
 x6 | x3 C x2 | x3 |] %18
V:3
 A,A, B, | C3 C ED | C3 [F,,A,]2 C | E3 D B,=B, | C3 A, A,B, | C3 A, CF | [A,,,A,,_E]2 DD D_D | %7
 C3 A, B,>A, | [F,,F,A,]3 || z3 | z ([C,G,] [C,G,]) z3 | z ([F,C] [F,C]2) [F,C]2 x3 | %12
 [G,C]3 G, G,[G,=B,] | [C,B,]3 [F,A,] [F,A,][F,B,] | [F,C]3 [F,A,] [F,C][A,,F,] | %15
 [B,,F,]3 [B,,F,] [B,,F,][B,,F,] | [C,F,]3 [C,A,] [C,B,]>[F,A,] | [F,A,]3 |] %18
V:4
 x3 | (F,,C, F,) x3 | (F,,C, F,) x3 | (C,E, G,) x3 | (F,,C, F,) x3 | (F,,C, F,) x3 | %6
 x2 [B,,,B,,]2 x2 | C,4 C,2 | x3 || x3 | x6 | x9 | x3 G, G, x | x6 | x6 | x6 | x6 | x3 |] %18

